packages/foundations/assets/icons/functional/images/maps/location_pin_20_filled.svg

<svg width="20" height="20" viewBox="0 0 20 20" fill="none" xmlns="http://www.w3.org/2000/svg">
<g clip-path="url(#clip0_2213_5043)">
<path fill-rule="evenodd" clip-rule="evenodd" d="M5 17C5 16.4688 5.5 16 6 16H14C14.5625 16 15 16.4375 15 17C15 17.5625 14.5 18 14 18H6C5.5 18 5 17.5625 5 17ZM10 2C12.7812 2 15 4.03125 15 6.65625C15 7.59375 14.6875 8.5625 14.0938 9.46875L10.8438 14.5312C10.625 14.8438 10.3125 15 10 15C9.6875 15 9.375 14.8438 9.15625 14.5312L5.90625 9.46875C5.3125 8.5625 5 7.59375 5 6.65625C5 4.03125 7.21875 2 10 2ZM10 5C8.90625 5 8 5.91339 8 7.01575C8 8.11811 8.90625 9 10 9C11.0938 9 12 8.11811 12 7.01575C12 5.91339 11.0938 5 10 5Z" fill="#1A1C1F"/>
</g>
<defs>
<clipPath id="clip0_2213_5043">
<rect width="20" height="20" fill="white"/>
</clipPath>
</defs>
</svg>

<svg xmlns="http://www.w3.org/2000/svg" width="20" height="20" fill="none"><g clip-path="url(#a)"><path fill="#1A1C1F" fill-rule="evenodd" d="M5 17c0-.531.5-1 1-1h8c.563 0 1 .438 1 1s-.5 1-1 1H6c-.5 0-1-.437-1-1m5-15c2.781 0 5 2.031 5 4.656 0 .938-.312 1.907-.906 2.813l-3.25 5.062c-.219.313-.531.469-.844.469s-.625-.156-.844-.469L5.906 9.47C5.313 8.563 5 7.594 5 6.656 5 4.031 7.219 2 10 2m0 3c-1.094 0-2 .913-2 2.016S8.906 9 10 9s2-.882 2-1.984C12 5.913 11.094 5 10 5" clip-rule="evenodd"/></g><defs><clipPath id="a"><path fill="#fff" d="M0 0h20v20H0z"/></clipPath></defs></svg>
